X:1
T:Title
%%score { 1 | 2 }
L:1/8
M:3/4
K:Ab
V:1 treble nm="Grand Piano"
V:2 bass 
V:1
 z2 z2[Q:1/4=94] [CE]>[CE] | [CE]3 [A,C] [B,D][DF] | [DF] [CE]3 [EA]>[EA] | [FA]3 [FB] [FA][DF] | %4
[M:2/4] [CE]4 |[M:1/4] E>A |[M:3/4] G3 G FG | A A3 A>A | B3 B AB |[M:2/4] [Ec]4 |[M:1/4] c>c | %11
[M:3/4] [Fd]3 [Fd] [Fd][Fd] | [Fd] [Ec]3 [Ac]>[Bd] | [ce]3 [Ac] [GB][FA] |[M:2/4] [GB]4 | %15
[M:1/4] [Ee]>[Ed] |[M:3/4] [Ec]3 [DB] [Ec]>[=EB] | [FA] [DF]3 [FA]>F | E3 c B>[CA] | %19
[M:2/4] [CA]4 |] %20
V:2
 z2 z2 [A,,A,]>[A,,A,] | [A,,A,]3 [A,,E,] [A,,E,][A,,A,] | [A,,A,] [A,,A,]3 [C,A,]>[C,A,] | %3
 [D,A,]3 [D,A,] [D,A,][D,A,] |[M:2/4] [A,,A,]4 |[M:1/4] [A,C]>[A,CE] | %6
[M:3/4] [E,B,D]3 [E,B,D] [E,B,D][E,B,D] | [F,A,C] [F,A,C]3 [F,A,C]>[F,A,C] | %8
 [E,G,E]3 [E,G,E] [E,F,E][E,G,E] |[M:2/4] [A,,A,]4 |[M:1/4] [A,E]>[A,E] | %11
[M:3/4] [D,A,]3 [D,A,] [D,A,][D,A,] | [A,,A,] [A,,A,]3 [A,E]>[A,E] | [A,E]3 [A,E] [E,D][F,C] | %14
[M:2/4] [E,E]4 |[M:1/4] [E,G,]>[E,B,] |[M:3/4] [A,,A,]3 [A,,A,] [A,,A,]>[C,G,] | %17
 [D,F,] [D,A,]3 [D,A,]>[D,A,D] | [E,A,C]3 [E,A,E] [E,G,D]>[A,,A,] |[M:2/4] [A,,A,]4 |] %20

